docs/jwt-logo.svg

<svg height="2500" viewBox=".4 .3 99.7 100" width="2500" xmlns="http://www.w3.org/2000/svg"><g fill="none" fill-rule="evenodd"><path d="m57.8 27.2-.1-26.9h-15l.1 26.9 7.5 10.3zm-15 46.1v27h15v-27l-7.5-10.3z" fill="#fff"/><path d="m57.8 73.3 15.8 21.8 12.1-8.8-15.8-21.8-12.1-3.9zm-15-46.1-15.9-21.8-12.1 8.8 15.8 21.8 12.2 3.9z" fill="#00f2e6"/><path d="m30.6 36-25.6-8.3-4.6 14.2 25.6 8.4 12.1-4zm31.8 18.2 7.5 10.3 25.6 8.3 4.6-14.2-25.6-8.3z" fill="#00b9f1"/><path d="m74.5 50.3 25.6-8.4-4.6-14.2-25.6 8.3-7.5 10.3zm-48.5 0-25.6 8.3 4.6 14.2 25.6-8.3 7.5-10.3z" fill="#d63aff"/><path d="m30.6 64.5-15.8 21.8 12.1 8.8 15.9-21.8v-12.7zm39.3-28.5 15.8-21.8-12.1-8.8-15.8 21.8v12.7z" fill="#fb015b"/></g></svg>

<?xml version="1.0" encoding="UTF-8" standalone="no"?>
<svg width="400px" height="201px" viewBox="0 0 400 201" version="1.1" xmlns="http://www.w3.org/2000/svg" xmlns:xlink="http://www.w3.org/1999/xlink" xmlns:sketch="http://www.bohemiancoding.com/sketch/ns">
    <!-- Generator: Sketch 3.3.2 (12043) - http://www.bohemiancoding.com/sketch -->
    <title>Group</title>
    <desc>Created with Sketch.</desc>
    <defs></defs>
    <g id="Page-1" stroke="none" stroke-width="1" fill="none" fill-rule="evenodd" sketch:type="MSPage">
        <g id="Group" sketch:type="MSLayerGroup">
            <rect id="Rectangle-path" fill="#000000" sketch:type="MSShapeGroup" x="0" y="0.5" width="400" height="200"></rect>
            <g transform="translate(50.000000, 50.000000)" id="Shape" sketch:type="MSShapeGroup">
                <g>
                    <path d="M57.8,27.2 L57.7,0.3 L42.7,0.3 L42.8,27.2 L50.3,37.5 L57.8,27.2 Z" fill="#FFFFFF"></path>
                    <path d="M42.8,73.3 L42.8,100.3 L57.8,100.3 L57.8,73.3 L50.3,63 L42.8,73.3 Z" fill="#FFFFFF"></path>
                    <path d="M57.8,73.3 L73.6,95.1 L85.7,86.3 L69.9,64.5 L57.8,60.6 L57.8,73.3 Z" fill="#00F2E6"></path>
                    <path d="M42.8,27.2 L26.9,5.4 L14.8,14.2 L30.6,36 L42.8,39.9 L42.8,27.2 Z" fill="#00F2E6"></path>
                    <path d="M30.6,36 L5,27.7 L0.4,41.9 L26,50.3 L38.1,46.3 L30.6,36 Z" fill="#00B9F1"></path>
                    <path d="M62.4,54.2 L69.9,64.5 L95.5,72.8 L100.1,58.6 L74.5,50.3 L62.4,54.2 Z" fill="#00B9F1"></path>
                    <path d="M74.5,50.3 L100.1,41.9 L95.5,27.7 L69.9,36 L62.4,46.3 L74.5,50.3 Z" fill="#D63AFF"></path>
                    <path d="M26,50.3 L0.4,58.6 L5,72.8 L30.6,64.5 L38.1,54.2 L26,50.3 Z" fill="#D63AFF"></path>
                    <path d="M30.6,64.5 L14.8,86.3 L26.9,95.1 L42.8,73.3 L42.8,60.6 L30.6,64.5 Z" fill="#FB015B"></path>
                    <path d="M69.9,36 L85.7,14.2 L73.6,5.4 L57.8,27.2 L57.8,39.9 L69.9,36 Z" fill="#FB015B"></path>
                </g>
                <path d="M156.1,25.8 L156.1,60.8 C156.1,68.5 149.8,74.8 142.1,74.8 L142.1,67.8 C146,67.8 149.1,64.7 149.1,60.8 L149.1,25.8 L156.1,25.8 L156.1,25.8 Z M283.9,32.8 L299.7,32.8 L299.7,25.8 L261.2,25.8 L261.2,32.8 L276.9,32.8 L276.9,74.8 L283.9,74.8 L283.9,32.8 L283.9,32.8 Z M240.1,25.8 L240.1,60.8 C240.1,64.7 237,67.8 233.1,67.8 C229.2,67.8 226.1,64.7 226.1,60.8 L226.1,39.8 C226.1,32.1 219.8,25.8 212.1,25.8 C204.4,25.8 198.1,32.1 198.1,39.8 L198.1,60.8 C198.1,64.7 195,67.8 191.1,67.8 C187.2,67.8 184.1,64.7 184.1,60.8 L184.1,25.8 L177.1,25.8 L177.1,60.8 C177.1,68.5 183.4,74.8 191.1,74.8 C198.8,74.8 205.1,68.5 205.1,60.8 L205.1,39.8 C205.1,35.9 208.2,32.8 212.1,32.8 C216,32.8 219.1,35.9 219.1,39.8 L219.1,39.8 L219.1,60.8 C219.1,68.5 225.4,74.8 233.1,74.8 C240.8,74.8 247.1,68.5 247.1,60.8 L247.1,25.8 L240.1,25.8 L240.1,25.8 Z" fill="#FFFFFF"></path>
            </g>
        </g>
    </g>
</svg>
